static/images/icons/gatsby.svg

<svg enable-background="new -389.5 57.5 381 381" viewBox="-389.5 57.5 381 381" xmlns="http://www.w3.org/2000/svg"><path d="m-56 248h-91v26h62.4c-9.1 39-37.7 71.5-75.4 84.5l-149.5-149.5c15.6-45.5 59.8-78 110.5-78 39 0 74.1 19.5 96.2 49.4l19.5-16.9c-26-35.1-67.6-58.5-115.7-58.5-67.6 0-124.8 48.1-139.1 111.8l171.6 171.6c62.4-15.6 110.5-72.8 110.5-140.4zm-286 1.3c0 36.4 14.3 71.5 41.6 98.8s63.7 41.6 98.8 41.6z" fill="#fff"/><path d="m-199 66c-100.1 0-182 81.9-182 182s81.9 182 182 182 182-81.9 182-182-81.9-182-182-182zm-101.4 283.4c-27.3-27.3-41.6-63.7-41.6-98.8l141.7 140.4c-36.4-1.3-72.8-14.3-100.1-41.6zm132.6 37.7-170.3-170.3c14.3-63.7 71.5-111.8 139.1-111.8 48.1 0 89.7 23.4 115.7 58.5l-19.5 16.9c-22.1-29.9-57.2-49.4-96.2-49.4-50.7 0-93.6 32.5-110.5 78l149.5 149.5c37.7-13 66.3-45.5 75.4-84.5h-62.4v-26h91c0 67.6-48.1 124.8-111.8 139.1z" fill="#639"/></svg>

<?xml version="1.0" encoding="utf-8"?>
<!-- Generator: Adobe Illustrator 19.0.1, SVG Export Plug-In . SVG Version: 6.00 Build 0)  -->
<svg version="1.1" id="Layer_1" xmlns="http://www.w3.org/2000/svg" xmlns:xlink="http://www.w3.org/1999/xlink" x="0px" y="0px"
	 viewBox="-389.5 57.5 381 381" style="enable-background:new -389.5 57.5 381 381;" xml:space="preserve">
<style type="text/css">
	.st0{fill:#FFFFFF;}
	.st1{fill:#663399;}
</style>
<path class="st0" d="M-56,248h-91v26h62.4c-9.1,39-37.7,71.5-75.4,84.5L-309.5,209c15.6-45.5,59.8-78,110.5-78
	c39,0,74.1,19.5,96.2,49.4l19.5-16.9c-26-35.1-67.6-58.5-115.7-58.5c-67.6,0-124.8,48.1-139.1,111.8l171.6,171.6
	C-104.1,372.8-56,315.6-56,248z M-342,249.3c0,36.4,14.3,71.5,41.6,98.8c27.3,27.3,63.7,41.6,98.8,41.6L-342,249.3z"/>
<path class="st1" d="M-199,66c-100.1,0-182,81.9-182,182s81.9,182,182,182s182-81.9,182-182S-98.9,66-199,66z M-300.4,349.4
	c-27.3-27.3-41.6-63.7-41.6-98.8L-200.3,391C-236.7,389.7-273.1,376.7-300.4,349.4z M-167.8,387.1l-170.3-170.3
	C-323.8,153.1-266.6,105-199,105c48.1,0,89.7,23.4,115.7,58.5l-19.5,16.9C-124.9,150.5-160,131-199,131c-50.7,0-93.6,32.5-110.5,78
	L-160,358.5c37.7-13,66.3-45.5,75.4-84.5H-147v-26h91C-56,315.6-104.1,372.8-167.8,387.1z"/>
</svg>
